X:1
T:Title
%%score { 1 | 2 }
L:1/8
Q:1/4=107
M:6/8
K:Ab
V:1 treble nm="Grand Piano"
V:2 bass 
V:1
 [CE]3 [CA]3 | [Ec]3 [EA]3 | [DF][EG][FA] [FB][FA][DF] | [DF]3 .[CE]3 | [Ec]3 [Ee]3 | [Fd]3 [FB]3 | %6
w: Geo.~F.~Rosche *||||||
 cBA B2 G | [CA]6 | [CE]3 [CA]3 | [Ec]3 [EA]3 | [DF][EG][FA] [FB][FA][DF] | [DF]3 .[CE]3 | %12
w: ||||||
 [Ec]3 [Ee]3 | [Fd]3 [FB]3 | cBA B2 G | [A,CA]6 | E3 A3 | c3 A3 | [EGB][EAc][EGB] [EA]2 [EGB] | %19
w: |||||||
 [EAc]3 .[CEA]3 | [Ec]3 [Ee]3 | [Fd]3 [FB]3 | cBA B2 G | [CA]6 | [CE]3 [CA]3 | [Ec]3 [A,EA]3 | %26
w: |||||||
 [B,EG][B,EG][B,EG] [B,EG][CEA][DEB] | [CEA]3 [CE]3 | [Ec]3 [_Ge]3 | [Fd]3 [FB]3 | cBA B2 G | %31
w: |||||
 [CA]6 |] %32
w: |
V:2
 [A,,A,]3 [A,,E,]3 | [A,,A,]3 [C,A,]3 | [D,A,][D,A,][D,A,] [D,A,][D,A,][D,A,] | %3
 [A,,A,]3 .[A,,A,]3 | [A,,A,]3 [C,A,]3 | [D,A,]3 [D,A,]3 | [E,A,E][E,G,D][E,A,C] [E,G,D]2 [E,B,D] | %7
 [A,,A,]6 | [A,,A,]3 [A,,E,]3 | [A,,A,]3 [C,A,]3 | [D,A,][D,A,][D,A,] [D,A,][D,A,][D,A,] | %11
 [A,,A,]3 .[A,,A,]3 | [A,,A,]3 [C,A,]3 | [D,A,]3 [D,A,]3 | [E,A,E][E,G,D][E,A,C] [E,G,D]2 [E,B,D] | %15
 A,,6 | E,3 A,3 | C3 A,3 | E,E,E, C,2 E, | A,3 .A,3 | [A,,A,]3 [C,A,]3 | [D,A,]3 [D,A,]3 | %22
 [E,A,E][E,G,D][E,A,C] [E,G,D]2 [E,B,D] | [A,,A,]6 | [A,,A,]3 [A,,E,]3 | [A,,A,]3 C,3 | %26
 E,E,E, D,E,E, | A,,3 [A,,A,]3 | [A,,A,]3 [C,A,]3 | [D,A,]3 [D,A,]3 | %30
 [E,A,E][E,G,D][E,A,C] [E,G,D]2 [E,B,D] | [A,,A,]6 |] %32

